source/img/icons/branch.svg

<svg width="76" height="32" viewBox="0 0 76 32" fill="none" xmlns="http://www.w3.org/2000/svg">
<path d="M63.4201 14.4037C62.8147 13.5202 62.2418 12.6248 61.7111 11.6939C60.9991 10.4426 59.5385 6.09088 61.5365 5.02096C61.0946 6.88371 63.0188 9.62211 63.6293 11.2393C64.379 13.2234 65.1519 15.7833 66.3103 17.8226C65.2201 16.8611 64.31 15.6995 63.4201 14.4037ZM66.7299 12.7254C66.9003 14.3505 67.1308 15.9726 67.3797 17.5908C66.6945 15.9243 65.7974 14.2864 65.1157 12.6761C64.0239 10.0925 63.2534 7.38761 62.1571 4.81092C62.1784 4.80796 62.1948 4.79909 62.2168 4.79711C65.5072 4.35928 66.5043 10.5717 66.7299 12.7254ZM67.0227 29.3905C66.6404 30.2149 65.5103 30.3273 65.0441 29.497C64.7177 28.9172 65.2462 27.9903 65.6281 27.587C65.6845 27.5268 65.7336 27.4913 65.7829 27.4538C65.8874 27.5061 66.0328 27.4765 66.0862 27.3651C66.0883 27.3601 66.0891 27.3562 66.0917 27.3513C66.3849 27.3907 66.5994 27.8325 67.0414 28.0544C67.1141 28.0908 67.1872 28.1086 67.2584 28.1135C67.2774 28.5602 67.198 29.0099 67.0227 29.3905ZM59.6459 25.952C59.1177 27.4854 58.4512 29.2288 57.3129 30.3964C56.9377 30.7819 56.5987 30.7652 56.2999 30.5739C56.6692 28.4695 57.1581 26.735 58.1249 24.7618C58.7015 23.5824 59.418 22.4277 59.9465 21.2098C60.0838 21.1033 60.2195 21.0008 60.3557 20.9002C60.2635 22.688 60.2486 24.1987 59.6459 25.952ZM56.0384 25.381C56.643 24.3466 57.5158 23.3605 58.4632 22.475C57.9283 23.5351 57.426 24.6138 56.9317 25.6631C56.3682 26.8602 55.7307 28.2338 55.4909 29.6016C55.4723 29.569 55.451 29.5355 55.4327 29.5039C54.6625 28.1688 55.3499 26.5584 56.0384 25.381ZM44.2489 13.7884C43.5626 12.9019 42.9118 11.9986 42.3333 11.0342C41.9368 10.3745 41.7965 9.61325 41.3397 9.00581C41.2673 8.90818 41.1428 8.93185 41.064 9.00186C41.0182 7.75049 41.1778 6.3739 41.3568 5.18071C41.506 4.18475 41.8719 3.49348 42.3463 3.07045C43.1177 7.60849 44.3291 12.1357 46.5849 16.1274C45.7356 15.4401 44.9463 14.6877 44.2489 13.7884ZM46.6882 5.57811C47.4446 8.94664 45.9735 12.4019 46.9381 15.6275C46.106 13.6563 45.2529 11.6969 44.5495 9.6655C43.7692 7.41522 43.7525 4.93221 42.8547 2.74405C44.2545 2.09815 46.1586 3.21837 46.6882 5.57811ZM42.9763 25.1986C42.955 24.3801 43.7808 23.8654 44.4619 23.7204C45.3096 23.538 45.3619 24.3999 45.4111 25.1276C45.4145 25.1799 45.4335 25.2302 45.4622 25.2716C44.8471 26.2537 43.0121 26.591 42.9763 25.1986ZM37.3622 19.7701C35.9251 21.7788 35.1706 24.1888 33.397 25.948C32.6112 26.7281 31.8291 26.8967 31.1913 26.6827C32.5963 22.5608 35.7326 19.5433 39.3994 17.6313C38.6538 18.1874 38.0026 18.8757 37.3622 19.7701ZM29.8318 23.6563C30.0965 22.3498 30.9025 21.336 31.7992 20.4298C33.359 18.853 35.2344 18.1066 37.2093 17.5977C36.3742 18.1716 35.6118 18.8688 35.0292 19.3855C32.9902 21.196 31.2961 23.4493 30.3166 26.0388C29.8616 25.452 29.6441 24.5803 29.8318 23.6563ZM21.0425 4.23898C20.6471 3.13355 20.9566 2.31016 21.9715 1.76781C23.1852 5.28228 24.6171 8.86774 26.6364 11.9917C24.1207 9.98796 22.0226 7.40042 21.0425 4.23898ZM23.211 1.3211C23.9625 1.59622 24.613 2.03405 25.162 2.63065C26.5846 3.97964 26.793 6.10962 26.8979 7.96448C26.9803 9.42785 26.928 10.8666 27.3336 12.2097C26.3191 10.2937 25.3355 8.36188 24.4022 6.40151C23.679 4.88291 23.3937 2.95212 22.3818 1.58735C22.631 1.48874 22.8995 1.39604 23.211 1.3211ZM9.03025 30.5462C8.97249 30.5551 8.92245 30.5472 8.86841 30.5482C10.0183 26.6985 10.9459 22.8399 12.5281 19.1597C12.2759 20.0659 12.1577 21.0373 12.0421 21.8222C11.7388 23.8782 11.3931 26.2034 11.6512 28.29C11.0577 29.3649 10.3615 30.3737 9.03025 30.5462ZM7.52153 26.2113C8.10713 24.1553 9.55579 22.5066 10.9712 20.8499C9.52075 23.8338 8.49469 27.1107 8.21645 30.3658C7.15564 29.6499 7.2769 27.0683 7.52153 26.2113ZM6.29858 14.3239C5.27472 13.959 4.30308 13.3999 3.38779 12.8112C3.00815 12.5647 0.143278 9.27797 0.866465 8.74449C2.7131 10.3104 4.86147 11.5342 6.94758 12.7096C8.61662 13.6503 10.4122 14.7163 12.2614 15.4017C10.2637 15.1256 8.27384 15.0269 6.29858 14.3239ZM13.525 15.3149C11.6303 13.9935 9.35661 13.0991 7.33696 12.0213C5.3956 10.9849 3.54743 9.76609 1.63443 8.68434C6.32322 8.85986 11.007 11.2196 13.525 15.3149ZM17.3138 24.5369C16.0989 24.4837 15.6436 23.256 16.2463 22.3014C16.9397 21.199 18.1306 21.7581 18.981 22.2551C19.0671 23.1949 18.3383 24.5803 17.3138 24.5369ZM2.9097 26.3277C2.39983 26.3523 2.21812 25.7982 2.16522 25.3653C2.10144 24.8416 2.44718 24.4058 2.84248 24.1287C3.20876 23.8723 3.67051 23.7283 4.10763 23.8398C4.41986 23.9196 4.55974 24.3131 4.85927 24.4373C4.66038 25.3505 3.82309 26.2823 2.9097 26.3277ZM14.5784 5.4016C15.7395 5.68855 15.5339 7.42015 15.2642 8.27115C15.1173 8.73462 14.8465 9.23557 14.4512 9.5245C13.6474 9.67932 12.8294 8.7435 12.427 7.86389C11.7042 6.28218 12.9988 5.01307 14.5784 5.4016ZM31.3378 6.72692C30.9186 5.62348 31.2834 4.45 32.4016 4.04274C33.4723 3.65027 34.1841 4.54664 34.1986 5.58698C34.206 6.08694 34.0497 6.56027 33.7846 6.97148C33.5209 7.38071 33.0222 7.50692 32.6451 7.76528C32.6145 7.78599 32.6037 7.81854 32.5787 7.84418C32.0279 7.80375 31.6164 7.46354 31.3378 6.72692ZM53.5429 10.3006C54.2332 9.91006 54.8565 10.5274 55.0728 11.1703C55.3805 12.0824 54.883 12.5508 54.5625 13.3279C54.5581 13.3407 54.5562 13.3525 54.5521 13.3654C52.9703 13.4226 51.7171 11.3281 53.5429 10.3006ZM75.4566 18.432C73.2988 19.0157 71.1184 19.355 68.9234 19.5078C68.7861 19.4467 68.6564 19.3796 68.5243 19.3135C68.5844 17.1234 67.8835 14.8889 67.6575 12.7254C67.483 11.0559 67.3405 9.22571 66.5755 7.71303C65.5864 5.7566 63.5733 3.00537 61.1527 4.27449C58.2547 5.79506 60.283 10.9573 61.3459 12.9049C62.6178 15.238 64.4387 18.2308 66.8993 19.5995C64.7191 19.6409 62.5271 19.5157 60.3318 19.2702C57.9313 18.4428 56.6434 16.1669 55.3481 14.0931C56.7199 13.7509 56.7859 11.616 56.3111 10.4869C55.6822 8.99003 54.2619 8.35794 52.8103 9.00581C51.1654 9.73848 50.6936 11.7925 51.6544 13.2786C52.0699 13.9215 52.7569 14.4136 53.5081 14.5023C53.9643 14.5566 54.36 14.4757 54.7173 14.2972C54.9117 15.5861 55.7826 16.6925 56.6061 17.6421C57.0458 18.149 57.5426 18.6114 58.0906 18.9842C54.6826 18.4901 51.274 17.7594 47.8955 16.9814C47.881 15.4273 47.5147 13.9215 47.6079 12.3408C47.7042 10.7187 47.8653 9.11033 47.8217 7.48227C47.7605 5.25072 47.0027 2.55472 44.7592 1.69286C39.9559 -0.152138 39.963 6.51983 40.9331 9.55111C40.8701 11.1772 42.7171 13.2461 43.5362 14.3554C44.2061 15.2626 44.9445 15.9332 45.7614 16.4834C42.6932 15.7655 39.6549 15.0417 36.671 14.4619C35.924 13.7677 35.25 12.9916 34.6637 12.1456C33.9133 11.0618 33.6783 9.90415 33.3064 8.72181C35.8639 8.60939 36.1885 1.52621 31.9126 2.97677C30.1316 3.58027 29.6109 5.67179 30.367 7.31464C30.7399 8.12423 31.7522 8.95256 32.6041 8.85592C32.594 10.0106 33.2676 11.2472 33.8133 12.1505C34.2851 12.9305 34.8718 13.6454 35.5469 14.2499C33.3467 13.8495 31.0144 13.5508 28.6434 13.4196C28.5412 13.3545 28.4401 13.2894 28.3391 13.2234C27.8486 9.76807 28.7553 5.1383 26.3477 2.31509C25.0781 0.825085 22.2409 -1.25361 20.6027 0.980898C18.9832 3.19371 20.5001 5.98241 21.7563 7.9773C23.1371 10.1714 24.9371 12.1012 27.1309 13.3585C25.1101 13.3111 23.0774 13.3999 21.0861 13.6612C20.333 13.2244 19.5744 12.8013 18.8318 12.3457C17.7368 11.6752 16.7961 10.8173 15.7648 10.0629C16.0829 9.63395 16.3045 9.11625 16.4563 8.61137C17.0254 6.71608 16.5163 4.3514 14.3344 4.10093C13.2278 3.97372 11.9812 4.49635 11.3819 5.47259C10.8023 6.41432 11.0943 7.65386 11.5501 8.57389C11.8142 9.1054 12.2148 9.56788 12.668 9.89625C12.6724 9.94753 12.6817 9.99684 12.7019 10.0432C13.073 10.9277 14.0808 11.2295 14.8939 10.8232C15.1001 10.7196 15.2836 10.5865 15.4474 10.4307C16.4973 12.045 18.3268 13.0291 20.1205 13.8012C18.0925 14.1296 16.1195 14.6522 14.2609 15.4086C12.1409 10.0215 5.77419 7.73866 0.480428 7.7219C0.216036 7.72091 0.0489407 7.93786 0.0254519 8.19227C-0.488914 13.8929 6.90614 16.9735 11.9563 16.5081C9.29732 17.9803 6.9662 20.0511 5.17026 22.8773C4.92373 22.6219 4.58247 22.4444 4.26728 22.3616C3.17706 22.0806 1.90331 22.8142 1.28344 23.7066C0.566554 24.7391 0.687053 26.1837 1.51508 27.1156C2.28906 27.9873 3.5799 27.6441 4.36954 27.0101C5.24417 26.307 5.74211 25.2154 5.54665 24.0745C5.53882 24.0261 5.52278 23.9847 5.50073 23.9512C5.50302 23.9413 5.50378 23.9325 5.50445 23.9226C5.55592 23.9019 5.60557 23.8703 5.65102 23.8269C7.33171 22.2038 8.96313 20.7897 10.6427 19.5906C7.91692 22.2837 5.26469 26.1581 6.76855 29.4221C8.60135 33.403 12.5426 30.2662 12.7672 26.9549C12.7761 26.8316 12.6724 26.7793 12.5751 26.7892C12.7914 25.6897 12.8361 24.533 12.9473 23.4384C13.0902 22.0441 13.3158 20.6882 13.6373 19.3273C13.7936 18.6667 14.0525 18.0858 14.1759 17.4537C16.2232 16.4262 18.4234 15.6886 20.9186 15.2587C20.1783 15.7961 19.593 16.4933 19.0702 17.3285C18.5808 18.1115 17.9594 19.2544 17.708 20.3243C17.6211 20.3154 17.5342 20.3066 17.4425 20.3085C16.5663 20.3243 15.845 20.9169 15.3828 21.6447C14.3564 23.2589 15.2128 25.2085 17.0848 25.4708C18.6207 25.6877 19.6124 24.2707 19.7754 22.8458C19.8613 22.0953 19.5778 21.3291 19.0616 21.0284C18.9399 20.8736 18.7957 20.7444 18.6349 20.6379C18.9377 19.9851 19.1216 19.2248 19.3525 18.6114C19.8971 17.1688 20.6434 15.9263 21.9227 15.0999C22.3718 15.0378 22.8305 14.9885 23.299 14.9461C28.1362 14.5132 33.0185 15.2557 37.806 16.2438C32.8585 16.5998 26.5197 21.4889 28.9574 26.4736C30.2785 29.1756 33.5779 27.4735 34.9061 25.8968C37.3521 22.9957 38.0048 19.0078 41.3549 17.011C41.9529 17.1441 42.5485 17.2772 43.1415 17.4094C44.7831 17.7742 46.4547 18.1618 48.1424 18.5464C47.0258 19.6025 45.9512 20.9899 45.5021 22.4918C45.2041 22.3606 44.8706 22.3024 44.5626 22.3024C43.0016 22.3005 41.5482 23.6701 41.647 25.3189C41.7559 27.1343 43.4272 27.7082 44.8864 27.0623C45.5036 26.7892 46.106 26.2883 46.313 25.6049C46.4171 25.2617 46.3895 24.96 46.2858 24.6849C46.5002 24.2362 46.5241 23.7559 46.2776 23.2116C46.2238 23.0943 46.1508 22.9937 46.0709 22.901C46.4069 22.3902 46.6714 21.8419 46.9616 21.2769C47.4402 20.345 48.0421 19.4743 48.7105 18.6765C52.2396 19.4723 55.8445 20.2267 59.4512 20.6537C59.427 20.6961 59.4016 20.7375 59.3773 20.7799C57.2685 22.0381 55.2354 23.8417 54.3794 26.2044C53.6745 28.149 54.0023 31.2937 56.3197 31.9396C58.1849 32.4563 59.5165 29.5237 60.0868 28.221C61.1725 25.741 61.6029 23.4384 61.0438 20.8144C62.9527 20.987 64.8586 21.0481 66.7508 20.9712C66.1153 21.8133 65.6972 22.7698 65.4148 23.8457C65.2589 24.4383 65.1339 25.1582 65.1693 25.8386C64.9758 25.9342 64.7915 26.0526 64.6267 26.1936C63.4813 27.1708 62.8453 29.0848 63.7077 30.4545C64.7013 32.0333 67.0518 31.8804 67.8895 30.2593C68.3919 29.286 68.3188 28.1224 67.8093 27.23C67.7706 26.5614 67.258 25.9628 66.6352 25.7252C66.5684 25.7005 66.5016 25.6848 66.4341 25.668C66.4651 25.1582 66.4726 24.6444 66.5427 24.1672C66.7083 23.0489 67.1051 21.9474 67.6102 20.9386C70.3489 20.7602 73.0545 20.2622 75.6918 19.3126C76.2252 19.1213 76.0141 18.2801 75.4566 18.432Z" fill="#8E9892" fill-opacity="0.7"/>
</svg>

<svg xmlns="http://www.w3.org/2000/svg" width="76" height="32" fill="none"><path fill="#8E9892" fill-opacity=".7" d="M63.42 14.404a38.688 38.688 0 0 1-1.709-2.71C61 10.443 59.54 6.09 61.536 5.02c-.441 1.863 1.483 4.601 2.093 6.218.75 1.984 1.523 4.544 2.681 6.584-1.09-.962-2-2.123-2.89-3.42Zm3.31-1.679c.17 1.626.4 3.248.65 4.866-.685-1.667-1.583-3.305-2.264-4.915-1.092-2.584-1.863-5.288-2.959-7.865.021-.003.038-.012.06-.014 3.29-.438 4.287 5.775 4.513 7.928Zm.293 16.666c-.383.824-1.513.936-1.979.106-.326-.58.202-1.507.584-1.91.056-.06.106-.096.155-.133.104.052.25.023.303-.089l.006-.014c.293.04.507.482.95.703a.567.567 0 0 0 .216.06c.02.446-.06.896-.235 1.276Zm-7.377-3.439c-.528 1.533-1.195 3.277-2.333 4.444-.375.386-.714.37-1.013.178.37-2.105.858-3.839 1.825-5.812.577-1.18 1.293-2.334 1.822-3.552.137-.107.272-.21.409-.31-.093 1.788-.107 3.299-.71 5.052Zm-3.608-.571c.605-1.034 1.478-2.02 2.425-2.906-.535 1.06-1.037 2.139-1.531 3.188-.564 1.197-1.201 2.57-1.441 3.939l-.058-.098c-.77-1.335-.083-2.946.605-4.123Zm-11.79-11.593c-.685-.886-1.336-1.79-1.915-2.754-.396-.66-.536-1.42-.993-2.028-.073-.098-.197-.074-.276-.004-.046-1.252.114-2.628.293-3.821.149-.996.515-1.688.99-2.11.77 4.537 1.982 9.065 4.238 13.056-.85-.687-1.639-1.44-2.336-2.339Zm2.44-8.21c.757 3.369-.715 6.824.25 10.05-.832-1.972-1.685-3.931-2.389-5.963-.78-2.25-.797-4.733-1.694-6.92 1.4-.647 3.304.473 3.833 2.833Zm-3.712 19.62c-.021-.818.805-1.333 1.486-1.478.848-.182.9.68.95 1.408a.288.288 0 0 0 .05.144c-.615.982-2.45 1.319-2.486-.073Zm-5.614-5.428c-1.437 2.009-2.191 4.419-3.965 6.178-.786.78-1.568.949-2.206.735 1.405-4.122 4.542-7.14 8.208-9.052-.745.556-1.396 1.245-2.037 2.14Zm-7.53 3.886c.264-1.306 1.07-2.32 1.967-3.226 1.56-1.577 3.435-2.323 5.41-2.832-.835.574-1.597 1.27-2.18 1.788-2.039 1.81-3.733 4.063-4.712 6.653-.455-.587-.673-1.459-.485-2.383ZM21.042 4.24c-.395-1.105-.085-1.929.93-2.471 1.213 3.514 2.645 7.1 4.664 10.224-2.515-2.004-4.613-4.592-5.593-7.753Zm2.169-2.918a4.917 4.917 0 0 1 1.951 1.31c1.423 1.349 1.631 3.479 1.736 5.333.082 1.464.03 2.903.436 4.246a152.58 152.58 0 0 1-2.932-5.808c-.723-1.52-1.008-3.45-2.02-4.815.249-.098.517-.191.829-.266ZM9.031 30.546c-.059.01-.109.001-.163.002 1.15-3.85 2.078-7.708 3.66-11.388-.252.906-.37 1.877-.486 2.662-.303 2.056-.649 4.381-.39 6.468-.594 1.075-1.29 2.084-2.622 2.256Zm-1.51-4.335c.586-2.056 2.035-3.704 3.45-5.361-1.45 2.984-2.476 6.26-2.755 9.516-1.06-.716-.94-3.298-.694-4.155ZM6.3 14.324c-1.024-.365-1.996-.924-2.911-1.513-.38-.246-3.245-3.533-2.522-4.067 1.847 1.566 3.995 2.79 6.082 3.966 1.669.94 3.464 2.006 5.313 2.692-1.997-.276-3.987-.375-5.962-1.078Zm7.226.99c-1.895-1.32-4.168-2.215-6.188-3.293-1.941-1.036-3.79-2.255-5.703-3.337 4.69.176 9.373 2.536 11.891 6.63Zm3.789 9.223c-1.215-.053-1.67-1.281-1.068-2.236.694-1.102 1.885-.543 2.735-.046.086.94-.643 2.325-1.667 2.282ZM2.91 26.327c-.51.025-.692-.529-.745-.962-.064-.523.282-.96.677-1.236.367-.257.829-.4 1.266-.29.312.08.452.474.751.598-.199.913-1.036 1.845-1.95 1.89ZM14.578 5.403c1.162.287.956 2.018.686 2.87-.147.463-.417.964-.813 1.252-.804.155-1.622-.78-2.024-1.66-.723-1.582.572-2.85 2.151-2.462Zm16.76 1.325c-.42-1.104-.055-2.277 1.064-2.684 1.07-.393 1.782.504 1.797 1.544.007.5-.15.973-.414 1.384-.264.41-.763.536-1.14.794-.03.021-.041.054-.066.08-.551-.041-.963-.381-1.241-1.118ZM53.543 10.3c.69-.39 1.313.226 1.53.87.307.911-.19 1.38-.51 2.157-.005.013-.007.024-.01.037-1.583.058-2.836-2.037-1.01-3.064Zm21.914 8.131a33.969 33.969 0 0 1-6.534 1.076c-.137-.061-.267-.128-.399-.194.06-2.19-.64-4.425-.867-6.589-.174-1.67-.316-3.5-1.081-5.012-.99-1.956-3.003-4.708-5.423-3.439-2.898 1.521-.87 6.683.193 8.63 1.272 2.334 3.093 5.327 5.553 6.695a50.488 50.488 0 0 1-6.567-.329c-2.4-.827-3.689-3.103-4.984-5.177 1.372-.342 1.438-2.477.963-3.606-.629-1.497-2.05-2.13-3.5-1.481-1.646.732-2.117 2.787-1.157 4.273.416.643 1.103 1.135 1.854 1.223.456.055.852-.026 1.21-.205.194 1.29 1.065 2.395 1.888 3.345.44.507.937.97 1.485 1.342-3.408-.494-6.817-1.225-10.196-2.003-.014-1.554-.38-3.06-.287-4.64.096-1.622.257-3.23.214-4.859-.062-2.231-.82-4.927-3.063-5.79-4.803-1.844-4.796 4.828-3.826 7.86-.063 1.625 1.784 3.694 2.603 4.803a8.845 8.845 0 0 0 2.225 2.128c-3.068-.718-6.106-1.441-9.09-2.021a14.22 14.22 0 0 1-2.007-2.316c-.75-1.084-.986-2.242-1.358-3.424 2.558-.113 2.883-7.196-1.393-5.745-1.781.603-2.302 2.695-1.546 4.338.373.81 1.385 1.638 2.237 1.54-.01 1.156.664 2.392 1.21 3.295a9.253 9.253 0 0 0 1.733 2.1c-2.2-.4-4.533-.7-6.904-.83-.102-.066-.203-.13-.304-.197-.49-3.455.416-8.085-1.991-10.908-1.27-1.49-4.107-3.569-5.745-1.334-1.62 2.213-.103 5.001 1.153 6.996 1.381 2.194 3.181 4.124 5.375 5.381a39.473 39.473 0 0 0-6.045.303c-.753-.437-1.512-.86-2.254-1.315-1.095-.67-2.036-1.529-3.067-2.283.318-.43.54-.947.691-1.452.57-1.895.06-4.26-2.122-4.51-1.106-.127-2.353.395-2.952 1.372-.58.941-.288 2.18.168 3.1.264.532.665.995 1.118 1.323.004.052.014.1.034.147.371.885 1.379 1.187 2.192.78a2.3 2.3 0 0 0 .553-.392c1.05 1.614 2.88 2.598 4.674 3.37-2.028.329-4.002.851-5.86 1.608C12.14 10.02 5.774 7.739.48 7.722c-.265-.001-.432.216-.456.47-.514 5.7 6.881 8.782 11.931 8.316-2.659 1.472-4.99 3.543-6.786 6.37a1.993 1.993 0 0 0-.903-.516c-1.09-.281-2.364.452-2.984 1.345-.716 1.032-.596 2.477.232 3.409.774.871 2.065.528 2.855-.106.874-.703 1.372-1.795 1.177-2.936a.314.314 0 0 0-.046-.123.173.173 0 0 0 .003-.028.462.462 0 0 0 .147-.096c1.68-1.623 3.312-3.037 4.992-4.236-2.726 2.693-5.378 6.567-3.874 9.831 1.832 3.981 5.774.844 5.998-2.467.01-.123-.095-.176-.192-.166.216-1.1.261-2.256.372-3.35a31.92 31.92 0 0 1 .69-4.112c.157-.66.415-1.241.539-1.873 2.047-1.028 4.247-1.765 6.743-2.195-.74.537-1.326 1.234-1.849 2.07-.49.782-1.11 1.925-1.362 2.995a2.133 2.133 0 0 0-.265-.016c-.877.016-1.598.609-2.06 1.337-1.027 1.614-.17 3.564 1.702 3.826 1.536.217 2.527-1.2 2.69-2.625.086-.75-.197-1.517-.713-1.818a1.81 1.81 0 0 0-.427-.39c.303-.653.487-1.413.717-2.027.545-1.442 1.291-2.685 2.57-3.511.45-.062.909-.111 1.377-.154 4.837-.433 9.72.31 14.507 1.298-4.947.356-11.286 5.245-8.849 10.23 1.322 2.702 4.62 1 5.95-.577 2.445-2.901 3.098-6.89 6.448-8.886l1.787.398c1.641.365 3.313.753 5 1.137-1.116 1.056-2.19 2.444-2.64 3.946a2.369 2.369 0 0 0-.94-.19c-1.56-.002-3.014 1.368-2.915 3.017.109 1.815 1.78 2.39 3.24 1.743.617-.273 1.219-.774 1.426-1.457a1.383 1.383 0 0 0-.027-.92c.214-.449.238-.93-.008-1.473a1.319 1.319 0 0 0-.207-.311c.336-.51.6-1.06.89-1.624a14.134 14.134 0 0 1 1.75-2.6c3.529.795 7.133 1.55 10.74 1.977l-.074.126c-2.108 1.258-4.142 3.062-4.998 5.424-.704 1.945-.377 5.09 1.94 5.736 1.866.516 3.197-2.416 3.768-3.719 1.085-2.48 1.516-4.783.957-7.407a43.69 43.69 0 0 0 5.707.157c-.636.842-1.054 1.799-1.336 2.875-.156.592-.281 1.312-.246 1.993a2.62 2.62 0 0 0-.542.355c-1.146.977-1.782 2.89-.92 4.26.994 1.58 3.345 1.426 4.182-.195.503-.973.43-2.137-.08-3.029-.038-.669-.551-1.267-1.174-1.505-.067-.024-.133-.04-.2-.057.03-.51.038-1.024.108-1.5.165-1.12.562-2.22 1.067-3.23 2.739-.178 5.445-.676 8.082-1.625.533-.192.322-1.033-.235-.881Z"/></svg>
